X:46
T:Far Away Wedding,The. JJo1.046
B:J.Johnson Choice Collection Vol 1 after c1750?
Z:vmp. Anne Wride 2015. www.village-music-project.org.uk
M:9/8
L:1/8
Q:3/8=110
K:A
cAA f2e cAA | cAA f2e gBB | cAA f2e cAA | BGB gae dBB ||
c2e fga ecA | c2e fga BGB | c2e fga ecA | BGB g(a/g/f/e/) dBB ||
c2A AcA AcA | c2A AcA BGB | c2A AcA AcA | (BG)B g(a/g/f/e/) dBB |]
W:The 1st Man turn his Partner quite round with both Hands, then cast off behind the 2d Cu. and Double Figure with the 2d Cu.
W:Then double Figure with the 3d Cu. and lead thro' the Top.
W:Then cast down into the 2d Cu. Place.

